X:191
T:She Is Far from the Land
N:"Slow and tenderly"
B:O'Neill's 191
Z:Transcribed by henrik.norbeck@mailbox.swipnet.se
M:6/8
L:1/8
K:D
F/E/|DF.A A2 F/A/|Bcd cBA F/E/|DFA ABc|d2 A GF2 3A/B/c/|
dcd e2 d/c/|BA F/A/ A2 d/B/|AF E/D/ Dd.F|EDE D2||
